client/data/interface-icons/twitter.svg

<?xml version="1.0"?>
<svg xmlns="http://www.w3.org/2000/svg" xmlns:lc="http://www.librecad.org" xmlns:xlink="http://www.w3.org/1999/xlink" width="284.76547851mm" height="284.76547851mm" viewBox="-5 -5 294.76547851 294.76547851">
    <g lc:layername="0" lc:is_locked="false" lc:is_construction="false" fill="none" stroke="white" stroke-width="1">
        <circle cx="142.38273926" cy="142.38273926" r="142.38273926" stroke-width="5"/>
        <path fill="white" d="M207.30553926,76.81713926 A39.11400148,39.11400148 0 0,0 141.09713926,112.81393926 A112.26173588,112.26173588 0 0,1 60.10433926,72.31753926 A39.06562947,39.06562947 0 0,0 72.31753926,124.38433926 A36.00101637,36.00101637 0 0,1 54.31913926,119.24193926 A39.89859053,39.89859053 0 0,0 85.81633926,158.45273926 A61.52942576,61.52942576 0 0,1 68.46073926,159.73833926 A38.71412154,38.71412154 0 0,0 105.10033926,186.09313926 A75.25692439,75.25692439 0 0,1 47.89113926,202.80593926 A111.41396291,111.41396291 0 0,0 218.87593926,103.17193926 A70.8426663,70.8426663 0 0,0 237.51713926,83.24513926 A58.74799028,58.74799028 0 0,1 215.66193926,89.03033926 A37.58322633,37.58322633 0 0,0 232.37473926,67.81793926 A68.54464174,68.54464174 0 0,1 207.30553926,76.81713926 Z "/>
    </g>
</svg>

<?xml version="1.0" encoding="UTF-8" standalone="no"?>
<svg
   xmlns:dc="http://purl.org/dc/elements/1.1/"
   xmlns:cc="http://creativecommons.org/ns#"
   xmlns:rdf="http://www.w3.org/1999/02/22-rdf-syntax-ns#"
   xmlns:svg="http://www.w3.org/2000/svg"
   xmlns="http://www.w3.org/2000/svg"
   xmlns:sodipodi="http://sodipodi.sourceforge.net/DTD/sodipodi-0.dtd"
   xmlns:inkscape="http://www.inkscape.org/namespaces/inkscape"
   width="284.76547851mm"
   height="284.76547851mm"
   viewBox="-5 -5 294.76547851 294.76547851"
   version="1.1"
   id="svg8"
   sodipodi:docname="twitter.svg"
   inkscape:version="0.92.2 (5c3e80d, 2017-08-06)">
  <metadata
     id="metadata14">
    <rdf:RDF>
      <cc:Work
         rdf:about="">
        <dc:format>image/svg+xml</dc:format>
        <dc:type
           rdf:resource="http://purl.org/dc/dcmitype/StillImage" />
      </cc:Work>
    </rdf:RDF>
  </metadata>
  <defs
     id="defs12" />
  <sodipodi:namedview
     pagecolor="#ffffff"
     bordercolor="#666666"
     borderopacity="1"
     objecttolerance="10"
     gridtolerance="10"
     guidetolerance="10"
     inkscape:pageopacity="0"
     inkscape:pageshadow="2"
     inkscape:window-width="1920"
     inkscape:window-height="1017"
     id="namedview10"
     showgrid="false"
     inkscape:zoom="0.31010028"
     inkscape:cx="121.89198"
     inkscape:cy="526.35571"
     inkscape:window-x="-8"
     inkscape:window-y="-8"
     inkscape:window-maximized="1"
     inkscape:current-layer="svg8" />
  <circle
     style="fill:none;stroke:#ffffff;stroke-width:5"
     id="circle2"
     r="142.38274"
     cy="142.38274"
     cx="142.38274" />
  <path
     style="fill:#2aa5ff;stroke:#2aa5ff;stroke-width:1;fill-opacity:1;stroke-opacity:1"
     inkscape:connector-curvature="0"
     id="path4"
     d="m 207.30554,76.817139 a 39.114001,39.114001 0 0 0 -66.2084,35.996801 112.26174,112.26174 0 0 1 -80.992801,-40.496401 39.065629,39.065629 0 0 0 12.2132,52.066801 36.001016,36.001016 0 0 1 -17.9984,-5.1424 39.898591,39.898591 0 0 0 31.4972,39.2108 61.529426,61.529426 0 0 1 -17.3556,1.2856 38.714122,38.714122 0 0 0 36.639601,26.3548 75.256924,75.256924 0 0 1 -57.209201,16.7128 111.41396,111.41396 0 0 0 170.984801,-99.634 70.842666,70.842666 0 0 0 18.6412,-19.926801 58.74799,58.74799 0 0 1 -21.8552,5.7852 37.583226,37.583226 0 0 0 16.7128,-21.2124 68.544642,68.544642 0 0 1 -25.0692,8.9992 z" />
</svg>
